src/icons/horusec.svg

<svg viewBox="0 0 32 32" xmlns="http://www.w3.org/2000/svg">
  <path
    d="M25.407 10.455C25.2633 10.6159 25.1332 10.7885 25.018 10.971C25.028 12.548 25.05 15.619 25.061 16.056C25.123 18.717 24.188 20.996 22.201 23.02C21.926 23.3 21.641 23.56 21.347 23.82C21.618 23.58 20.714 24.436 19.23 25.422C18.1679 26.0919 17.0546 26.6557 15.903 27.107C13.438 26.124 11.394 24.785 9.66301 23.02C9.34901 22.7 9.06301 22.374 8.80201 22.041L8.79201 22.027C8.44934 21.5934 8.1415 21.1273 7.87201 20.634L7.87701 20.63L7.48801 20.038C6.36467 19.7802 5.38606 19.0947 4.76001 18.127C4.84001 18.654 4.95301 19.169 5.10401 19.672C5.39101 20.572 5.48701 20.753 5.98401 21.762C6.53201 22.762 7.24501 23.712 8.13301 24.616C10.177 26.7 12.596 28.252 15.529 29.359L15.903 29.5L16.277 29.359C19.271 28.228 21.71 26.676 23.731 24.616C26.168 22.132 27.315 19.315 27.236 16.003C27.229 15.691 27.223 11.317 27.218 7.5C27.1074 7.79578 26.9853 8.08606 26.852 8.37C26.52 9.068 26.008 9.776 25.407 10.455Z"
    fill="#E64A19"
  />
  <path
    d="M27.236 2.5V4.006L27.238 4.102V4.612L27.24 6.347L27.23 6.382C27.102 6.772 26.981 7.144 26.96 7.202L26.913 7.328C26.7594 7.75062 26.5852 8.16545 26.391 8.571L26.352 8.649C26.032 9.271 25.566 9.889 25.048 10.431L24.988 10.497C24.949 10.5411 24.909 10.5841 24.868 10.626L24.801 10.696C24.198 11.32 23.551 11.894 22.783 12.318L22.656 12.388C22.356 12.556 22.058 12.725 21.749 12.871L21.725 12.881C21.425 13.024 21.401 13.025 21.4 13.341V22.883L21.362 22.913C20.6978 23.4824 20.0068 24.0121 19.292 24.5V14.635C19.288 14.496 19.275 14.354 19.264 14.155L19.222 14.172C19.072 14.238 18.958 14.278 18.854 14.337L18.082 14.777C17.566 15.072 17.053 15.367 16.537 15.659L15.746 16.106C14.953 16.551 14.159 16.994 13.37 17.444L13.363 17.448C13.158 17.564 12.069 18.19 10.72 18.965L10.718 18.956L10.646 19.002C10.4282 19.1356 10.1977 19.2475 9.95801 19.336L9.95101 19.339H9.94801L9.87601 19.364C9.48553 19.4985 9.07598 19.5694 8.66301 19.574H8.50301C8.28736 19.568 8.07241 19.5439 7.86001 19.502L7.80801 19.491L7.75701 19.478L7.67201 19.458C7.531 19.4217 7.39152 19.3783 7.25401 19.328L7.20401 19.31L7.15301 19.29L7.10701 19.274C5.69201 18.702 4.76001 17.359 4.76001 15.754V15.686L4.76601 15.55V15.485H4.77101L4.77501 15.43C4.83334 14.7645 5.06515 14.1259 5.44732 13.5779C5.82948 13.0299 6.34864 12.5917 6.95301 12.307L7.01501 12.277C7.50816 12.0558 8.0343 11.9398 8.56601 11.935H8.59101L8.61601 11.934H8.67601C9.2732 11.9427 9.86027 12.0896 10.3912 12.3632C10.9221 12.6368 11.3824 13.0297 11.736 13.511L11.766 13.544C11.831 13.621 11.887 13.707 11.928 13.8L11.961 13.853L11.992 13.908L11.974 13.917L11.986 13.955C12.0113 14.047 12.0241 14.1428 12.024 14.239V14.269C12.0146 14.5498 11.8962 14.816 11.6938 15.0109C11.4914 15.2058 11.221 15.3142 10.94 15.313H10.902C10.734 15.3101 10.5688 15.2651 10.4185 15.1815C10.2683 15.0979 10.1369 14.9778 10.034 14.83L10.023 14.834L9.99901 14.799C9.73108 14.4297 9.34875 14.185 8.92701 14.113L8.87701 14.103C8.79054 14.0896 8.70332 14.0829 8.61601 14.083H8.57701C8.18531 14.091 7.80867 14.2354 7.51204 14.4914C7.2154 14.7473 7.01734 15.0987 6.95201 15.485L6.94501 15.539C6.94043 15.5758 6.9371 15.6129 6.93501 15.65L6.93301 15.837L6.93501 15.874C6.96757 16.2968 7.15885 16.6917 7.47045 16.9794C7.78205 17.2671 8.19092 17.4263 8.61501 17.425H8.67201C8.83572 17.4187 8.99803 17.3891 9.15501 17.337L9.16201 17.334L9.16901 17.331C9.47501 17.201 15.468 13.865 15.826 13.663L15.817 13.659C15.622 13.575 13.967 13.064 13.293 12.719L13.195 12.67C12.2654 12.193 11.42 11.5675 10.692 10.818L10.616 10.737C10.0152 10.1087 9.49588 9.39046 9.07301 8.603L9.06101 8.58C8.96601 8.414 8.84101 8.336 8.62701 8.339H8.60901L7.96301 8.341H7.34001L7.30701 8.342H6.92701V9.975C6.9179 10.2512 6.80146 10.5131 6.60241 10.7048C6.40337 10.8966 6.1374 11.0032 5.86101 11.002H5.79801C5.52166 10.9952 5.25887 10.8809 5.06557 10.6833C4.87226 10.4857 4.76371 10.2204 4.76301 9.944V2.5H27.236ZM25.07 4.645H6.92701V6.254H6.95901V6.257H10.018C10.332 6.259 10.332 6.277 10.462 6.607L10.492 6.685C11.077 8.137 11.955 9.361 13.265 10.274L13.353 10.334C13.932 10.7174 14.5561 11.0281 15.211 11.259L15.297 11.29C16.227 11.614 17.177 11.709 18.149 11.66L18.245 11.655C18.8847 11.6159 19.5173 11.4873 20.128 11.272L20.236 11.232C20.738 11.049 21.216 10.832 21.675 10.559L21.76 10.508C22.3114 10.1632 22.8212 9.74185 23.277 9.254L23.34 9.188C23.7939 8.71161 24.1785 8.1597 24.48 7.552L24.54 7.43C24.716 7.066 24.89 6.708 25.066 6.31V6.283L25.072 4.645H25.07ZM17.664 6.33H17.925C20.011 6.333 22.019 6.353 22.192 6.395L22.172 6.465C21.9805 7.08426 21.6637 7.64637 21.246 8.108L21.201 8.159C20.7872 8.62792 20.2847 9.01034 19.7224 9.28425C19.1602 9.55816 18.5493 9.71815 17.925 9.755L17.855 9.759C15.535 9.887 13.447 8.229 13.085 6.395C13.215 6.357 14.95 6.336 16.871 6.332H17.201L17.398 6.331L17.664 6.33Z"
    fill="#E64A19"
  />
</svg>

<svg fill="none" xmlns="http://www.w3.org/2000/svg" viewBox="0 0 32 32"><g fill="#e64a19"><path d="M25.407 10.455a3.9 3.9 0 0 0-.389.516c.01 1.577.032 4.648.043 5.085.062 2.661-.873 4.94-2.86 6.964-.275.28-.56.54-.854.8.271-.24-.633.616-2.117 1.602a20.666 22.983 0 0 1-3.327 1.685c-2.465-.983-4.509-2.322-6.24-4.087-.314-.32-.6-.646-.861-.979l-.01-.014a8.884 9.88 0 0 1-.92-1.393l.005-.004-.389-.592a4.429 4.429 0 0 1-2.728-1.911c.08.527.193 1.042.344 1.545.287.9.383 1.081.88 2.09.548 1 1.261 1.95 2.149 2.854 2.044 2.084 4.463 3.636 7.396 4.743l.374.141.374-.141c2.994-1.131 5.433-2.683 7.454-4.743 2.437-2.484 3.584-5.301 3.505-8.613-.007-.312-.013-4.686-.018-8.503a9.9 11.01 0 0 1-.366.87c-.332.698-.844 1.406-1.445 2.085z"/><path d="M27.236 2.5v1.506l.002.096v.51l.002 1.735-.01.035c-.128.39-.249.762-.27.82l-.047.126a13.75 13.75 0 0 1-.522 1.243l-.039.078c-.32.622-.786 1.24-1.304 1.782l-.06.066a3.409 3.791 0 0 1-.12.129l-.067.07c-.603.624-1.25 1.198-2.018 1.622l-.127.07c-.3.168-.598.337-.907.483l-.024.01c-.3.143-.324.144-.325.46v9.542l-.038.03a23.674 26.328 0 0 1-2.07 1.587v-9.865c-.004-.139-.017-.281-.028-.48l-.042.017c-.15.066-.264.106-.368.165l-.772.44c-.516.295-1.029.59-1.545.882l-.791.447c-.793.445-1.587.888-2.376 1.338l-.007.004c-.205.116-1.294.742-2.643 1.517l-.002-.009-.072.046a3.902 3.902 0 0 1-.688.334l-.007.003h-.003l-.072.025a3.857 3.857 0 0 1-1.213.21h-.16a4.298 4.78 0 0 1-.643-.072l-.052-.011-.051-.013-.085-.02a4.832 5.374 0 0 1-.418-.13l-.05-.018-.051-.02v.001l-.046-.017c-1.415-.572-2.347-1.915-2.347-3.52v-.068l.006-.136v-.065h.005l.004-.055a3.821 3.821 0 0 1 2.178-3.123l.062-.03a4.24 4.716 0 0 1 1.551-.342h.025l.025-.001h.06a3.867 3.867 0 0 1 3.06 1.577l.03.033c.065.077.121.163.162.256l.033.053.031.055-.018.009.012.038a.872.97 0 0 1 .038.284v.03a1.08 1.08 0 0 1-1.084 1.044h-.038a1.12 1.246 0 0 1-.868-.483l-.011.004-.024-.035a1.711 1.903 0 0 0-1.072-.686l-.05-.01a1.872 2.082 0 0 0-.261-.02h-.039a1.683 1.683 0 0 0-1.625 1.402l-.007.054a1.34 1.49 0 0 0-.01.111l-.002.187.002.037a1.68 1.68 0 0 0 1.68 1.551h.057a1.924 2.14 0 0 0 .483-.088l.007-.003.007-.003c.306-.13 6.299-3.466 6.657-3.668l-.009-.004c-.195-.084-1.85-.595-2.524-.94l-.098-.049a9.598 9.598 0 0 1-2.503-1.852l-.076-.081a8.893 9.89 0 0 1-1.543-2.134l-.012-.023c-.095-.166-.22-.244-.434-.241h-.018l-.646.002H7.34l-.033.001h-.38v1.633a1.062 1.062 0 0 1-1.066 1.027h-.063a1.061 1.061 0 0 1-1.035-1.058V2.5h22.474zM25.07 4.645H6.927v1.609h.032v.003h3.059c.314.002.314.02.444.35l.03.078c.585 1.452 1.463 2.676 2.773 3.589l.088.06a8.46 8.46 0 0 0 1.858.925l.086.031c.93.324 1.88.419 2.852.37l.096-.005a7.613 8.466 0 0 0 1.883-.383l.108-.04c.502-.183.98-.4 1.439-.673l.085-.051a7.459 8.295 0 0 0 1.517-1.254l.063-.066a6.026 6.702 0 0 0 1.14-1.636l.06-.122c.176-.364.35-.722.526-1.12v-.027l.006-1.638zM17.664 6.33h.261c2.086.003 4.094.023 4.267.065l-.02.07a3.847 4.278 0 0 1-.926 1.643l-.045.051a4.742 4.742 0 0 1-3.276 1.596l-.07.004c-2.32.128-4.408-1.53-4.77-3.364.13-.038 1.865-.059 3.786-.063h.33l.197-.001z"/></g></svg>
